communes/94.svg

<?xml version="1.0" encoding="UTF-8" standalone="no"?>
<!-- Created with Inkscape (http://www.inkscape.org/) -->
<svg
   xmlns:svg="http://www.w3.org/2000/svg"
   xmlns="http://www.w3.org/2000/svg"
   version="1.0"
   width="210.66692"
   height="246.76349"
   id="svg2780">
  <defs
     id="defs2782" />
  <g
     transform="translate(-141.73228,-194.88189)"
     id="layer1">
    <path
       d="M 142.73228,195.88189 L 146.52622,355.26276 C 149.23617,469.10624 344.8953,469.10624 347.60526,355.26276 L 351.3992,195.88189 L 142.73228,195.88189 z "
       style="fill:#000000;fill-opacity:1;fill-rule:evenodd;stroke:#000000;stroke-width:2;stroke-linecap:butt;stroke-miterlimit:4;stroke-dashoffset:0;stroke-opacity:1"
       id="path3282" />
    <path
       d="M 240.47809,258.22987 C 239.42088,233.91395 238.89228,216.11752 244.88316,224.39902 C 250.87404,232.68053 260.03656,252.9438 260.03656,252.9438 L 240.47809,258.22987 z "
       style="fill:#ffffff;fill-opacity:1;fill-rule:evenodd;stroke:#000000;stroke-width:1px;stroke-linecap:butt;stroke-linejoin:miter;stroke-opacity:1"
       id="path15136" />
    <path
       d="M 187.08178,356.82832 C 182.97019,351.09701 175.24537,343.62139 176.24211,330.16524 C 183.24806,342.88252 192.99475,350.45826 204.02655,356.95293 L 187.08178,356.82832 z "
       style="fill:#ffffff;fill-opacity:1;fill-rule:evenodd;stroke:#000000;stroke-width:1px;stroke-linecap:butt;stroke-linejoin:miter;stroke-opacity:1"
       id="path13190" />
    <path
       d="M 172.70067,361.79408 C 170.49814,355.53889 180.64364,355.84444 184.88626,355.75786 C 189.20322,355.66976 212.8843,347.92482 218.1004,345.53813 C 223.24355,343.18481 228.93685,337.25662 223.82698,327.74169 C 218.71712,318.22677 204.88523,312.14779 199.42295,312.50019 C 193.96068,312.8526 186.38398,315.84803 185.50297,316.72905 C 184.62196,317.61006 178.45488,318.66727 178.10247,315.84803 C 177.75007,313.0288 218.2766,298.404 218.2766,298.404 L 252.10745,351.0885 L 172.70067,361.79408 z "
       style="fill:#ffffff;fill-opacity:1;fill-rule:evenodd;stroke:#000000;stroke-width:1px;stroke-linecap:butt;stroke-linejoin:miter;stroke-opacity:1"
       id="path9306" />
    <path
       d="M 177.23887,293.90844 C 175.8727,290.4634 175.55763,280.47641 176.49131,278.45879 C 177.44814,276.39113 177.16824,275.25582 173.87484,278.3342 C 170.45279,281.53285 171.0244,294.85073 174.24861,295.27896 L 177.23887,293.90844 z "
       style="fill:#ffffff;fill-opacity:1;fill-rule:evenodd;stroke:#000000;stroke-width:1px;stroke-linecap:butt;stroke-linejoin:miter;stroke-opacity:1"
       id="path13192" />
    <path
       d="M 233.18151,344.61813 C 218.85321,332.15875 198.61399,335.17322 184.96368,337.51628 C 171.33361,339.85587 165.02866,338.76222 159.67113,335.64737 C 155.85988,333.43152 150.82497,333.40468 155.68413,338.26384 C 160.54329,343.123 162.56551,348.70961 182.34721,346.11326 C 202.28223,343.49678 223.58778,343.99516 233.18151,344.61813 z "
       style="fill:#ffffff;fill-opacity:1;fill-rule:evenodd;stroke:#000000;stroke-width:1px;stroke-linecap:butt;stroke-linejoin:miter;stroke-opacity:1"
       id="path13194" />
    <path
       d="M 196.17713,362.18586 C 187.20638,350.22485 184.34072,342.74923 186.45881,330.66362 C 192.21882,348.11546 199.59822,352.70095 210.63002,359.19562 L 196.17713,362.18586 z "
       style="fill:#ffffff;fill-opacity:1;fill-rule:evenodd;stroke:#000000;stroke-width:1px;stroke-linecap:butt;stroke-linejoin:miter;stroke-opacity:1"
       id="path12219" />
    <path
       d="M 286.0264,408.79477 C 309.54941,392.67225 327.81988,346.30606 331.97021,333.05325 C 336.10957,319.83548 338.95779,302.60984 344.63505,294.8244 C 340.22602,293.55844 335.14011,296.85983 330.15291,298.75641 C 333.20644,293.97652 340.83465,285.42376 346.06604,280.07896 C 339.92833,278.99238 332.07394,282.22276 327.69825,287.12706 C 331.4866,281.07744 338.9752,272.8253 343.99696,268.0972 C 337.41874,268.45772 328.46179,272.43039 321.97168,276.66736 C 327.43395,268.34837 334.30583,261.26279 342.41114,255.93924 C 334.36457,255.99798 328.60863,258.78785 322.41218,262.98734 C 327.02281,256.32102 331.72154,249.7428 337.56558,244.7504 C 329.98888,245.95445 324.0861,249.09672 318.53573,253.47241 C 322.05978,246.60052 326.64103,240.25724 330.86989,234.61877 C 323.41066,238.08408 316.92054,242.95901 309.63751,247.30533 C 314.4537,240.25724 318.12459,233.20914 323.11698,226.51346 C 314.39497,230.53674 306.64207,235.44104 298.18436,239.90484 C 298.36056,231.74079 297.47955,223.31245 297.65576,215.1484 C 293.19196,222.31396 289.43297,231.59395 287.17171,241.31445 C 286.76057,233.62028 286.96614,223.63548 286.555,215.94131 C 282.17931,221.75598 278.24413,228.53978 276.24717,238.49521 C 274.83755,230.3899 275.01375,221.75599 275.01375,212.94588 C 270.05072,220.34637 268.08313,230.56611 266.37984,239.46433 C 265.23452,231.50586 265.05832,221.78535 264.35351,213.73878 C 261.47554,221.31549 258.94997,229.42079 257.39352,238.84762 C 257.21732,231.50585 257.01909,220.09675 255.01479,215.67701 C 254.47172,220.3036 251.46093,231.88052 250.60973,237.26179 C 249.74494,242.729 217.13129,279.10985 210.96421,281.04808 C 203.99887,283.23718 197.97482,283.78185 191.22955,287.39136 C 184.44728,291.02066 171.31869,295.32047 162.33237,294.87996 C 153.43415,294.43946 152.03912,293.55132 152.02453,298.40401 C 152.00994,303.16859 153.09546,302.05186 155.37238,302.89717 C 157.61923,303.73131 159.42503,305.18779 156.60579,307.30222 C 153.78656,309.41665 151.01118,310.16699 155.72478,314.70272 C 160.39414,319.19588 161.34,322.81453 169.55666,320.5174 C 177.75007,318.22677 190.43495,310.56193 201.97789,310.73816 C 213.51914,310.91437 223.59724,320.50055 227.87963,329.32752 C 232.19659,338.22574 231.49178,346.50724 223.73888,349.50268 C 215.98598,352.49812 193.16777,358.04849 185.85537,359.63431 C 178.56074,361.21628 172.5521,360.69153 172.5521,360.69153 C 172.5521,360.69153 172.99375,368.09878 184.62195,367.82772 C 196.25188,367.55662 209.24793,367.39907 211.31661,368.79683 C 213.3853,370.1946 216.19154,372.35025 218.3647,373.8186 C 218.24723,371.99784 218.48218,370.26519 218.36471,368.44443 C 223.21027,370.7938 227.61532,373.23126 231.40367,376.10923 C 231.72671,373.20189 230.46393,370.03025 228.14393,367.29911 C 233.2538,369.85405 238.18747,372.84949 242.76873,376.81404 C 243.29734,373.43683 242.15202,369.26671 239.77329,365.8895 C 248.99454,369.82468 253.54644,382.83429 253.95757,389.23631 C 256.77681,387.26872 258.09833,385.21302 258.97934,380.51429 C 260.00718,389.29504 259.62542,399.3973 258.97934,406.68034 C 261.91605,403.65553 263.53123,400.19022 265.32263,395.13908 C 264.99959,402.83324 263.61934,410.26312 262.85579,417.60488 C 267.93629,411.9664 272.31198,405.79932 274.30894,397.60591 C 274.01527,402.89198 273.8978,408.79476 272.89932,413.99273 C 278.3616,410.40995 281.88564,407.00336 284.52868,395.31528 C 285.64462,397.45908 285.79147,404.62464 286.0264,408.79477 z "
       style="fill:#ffffff;fill-opacity:1;fill-rule:evenodd;stroke:#000000;stroke-width:1px;stroke-linecap:butt;stroke-linejoin:miter;stroke-opacity:1"
       id="path4213" />
    <path
       d="M 189.32898,318.19929 C 197.88638,324.99833 208.08086,328.38828 214.23975,314.44436 C 211.93286,313.06881 209.4588,312.01069 206.86475,311.38186 C 205.72223,316.9329 198.89009,316.75341 192.97935,311.89716 C 186.83696,306.78519 186.45881,298.39381 186.708,292.4133 C 186.95719,286.4328 182.27658,289.7087 181.10128,295.40356 C 179.93133,301.0725 178.75374,309.79705 189.32898,318.19929 z "
       style="fill:#ffffff;fill-opacity:1;fill-rule:evenodd;stroke:#000000;stroke-width:1px;stroke-linecap:butt;stroke-linejoin:miter;stroke-opacity:1"
       id="path18059" />
    <path
       d="M 263.45782,273.47504 C 273.17614,264.50428 280.09454,240.12541 300.46219,225.75559 C 320.77099,211.42729 316.65939,218.90293 315.41345,222.14237 C 314.16751,225.38181 311.44108,233.35406 312.67239,243.6971 C 313.91833,254.16299 314.5413,259.52053 302.08191,269.48803 C 289.62253,279.45554 284.88796,280.70148 284.88796,280.70148 C 291.64681,285.03588 302.01888,295.35079 304.41695,298.68844 C 303.38941,298.67329 301.73891,298.78274 300.83597,298.76759 C 304.03388,303.04531 306.73342,309.69032 308.31161,315.08939 C 306.56729,314.50795 304.82298,313.92651 303.07866,313.34507 C 306.65035,319.90701 308.22854,325.72139 308.56079,330.78821 C 306.9826,329.29308 305.40442,327.79796 303.82623,326.30283 C 305.03064,332.94784 304.73992,339.71744 304.4492,345.61489 C 303.20326,344.20282 301.95732,342.29238 301.08516,340.50653 C 300.87751,346.69469 299.92229,351.88611 298.59329,356.45455 C 297.6796,354.95942 296.76591,353.4643 295.85222,351.96917 C 295.02159,357.61743 292.69584,361.89515 290.61927,366.54666 C 290.45315,365.13459 290.03784,363.09955 289.87172,361.81208 C 287.33831,367.00349 283.30977,370.326 279.53042,373.27472 C 279.48889,372.02878 279.82115,368.78934 279.90421,367.16962 C 277.03855,370.82437 273.42533,373.48238 269.43832,375.14363"
       style="fill:#ffffff;fill-opacity:1;fill-rule:evenodd;stroke:#000000;stroke-width:1px;stroke-linecap:butt;stroke-linejoin:miter;stroke-opacity:1"
       id="path7360" />
    <path
       d="M 276.42337,275.3215 C 293.33879,257.34886 289.48324,246.89674 299.50588,233.56155 C 309.4437,220.33922 312.89725,217.87954 312.89725,217.87954"
       style="fill:#ffffff;fill-opacity:1;fill-rule:evenodd;stroke:#000000;stroke-width:1px;stroke-linecap:butt;stroke-linejoin:miter;stroke-opacity:1"
       id="path8331" />
    <path
       d="M 238.89228,284.30782 C 248.75961,277.96453 253.34087,285.71743 254.92669,288.36047"
       style="fill:none;fill-opacity:1;fill-rule:evenodd;stroke:#000000;stroke-width:1px;stroke-linecap:butt;stroke-linejoin:miter;stroke-opacity:1"
       id="path8333" />
    <path
       d="M 273.28981 365.96603 A 3.9645524 3.9645524 0 1 1  265.3607,365.96603 A 3.9645524 3.9645524 0 1 1  273.28981 365.96603 z"
       transform="matrix(0.8222222,0,0,0.7111111,23.526053,26.53215)"
       style="opacity:1;fill:none;fill-opacity:1;fill-rule:evenodd;stroke:#000000;stroke-width:1.01716685;stroke-linecap:round;stroke-linejoin:miter;stroke-miterlimit:4;stroke-dasharray:none;stroke-dashoffset:0;stroke-opacity:1"
       id="path8335" />
    <path
       d="M 157.53792,312.17472 C 161.40033,314.16822 162.66138,310.60401 162.91057,306.49241 C 163.15976,302.38081 160.79248,296.77409 158.67438,295.77734 C 156.55628,294.78059 154.32455,293.7829 153.25898,294.50742 C 152.13241,295.27342 152.15159,296.99812 152.19412,298.669 C 152.23666,300.33997 151.72318,301.92408 153.1495,302.21973 C 154.49124,302.49785 158.42519,305.63537 158.67438,302.70925 C 158.57006,304.97135 156.62301,306.4408 159.23948,306.5654 C 160.80366,306.63988 160.43274,311.05392 159.64763,312.5792 C 158.41463,312.90052 158.55683,312.6219 157.53792,312.17472 z "
       style="fill:#ffffff;fill-opacity:1;fill-rule:evenodd;stroke:#000000;stroke-width:1px;stroke-linecap:butt;stroke-linejoin:miter;stroke-opacity:1"
       id="path14165" />
  </g>
</svg>

<?xml version="1.0" encoding="UTF-8"?>
<svg version="1.0" viewBox="0 0 210.67 246.76" xmlns="http://www.w3.org/2000/svg">
<g transform="translate(-141.73 -194.88)" stroke="#000">
<path d="m142.73 195.88 3.7939 159.38c2.71 113.84 198.37 113.84 201.08 0l3.7939-159.38h-208.67z" fill-rule="evenodd" stroke-width="2"/>
<path d="m240.48 258.23c-1.0572-24.316-1.5858-42.112 4.4051-33.831 5.9909 8.2815 15.153 28.545 15.153 28.545l-19.558 5.2861z" fill="#fff" fill-rule="evenodd" stroke-width="1px"/>
<path d="m187.08 356.83c-4.1116-5.7313-11.836-13.207-10.84-26.663 7.006 12.717 16.753 20.293 27.784 26.788l-16.945-0.12461z" fill="#fff" fill-rule="evenodd" stroke-width="1px"/>
<path d="m172.7 361.79c-2.2025-6.2552 7.943-5.9496 12.186-6.0362 4.317-0.0881 27.998-7.833 33.214-10.22 5.1432-2.3533 10.836-8.2815 5.7266-17.796-5.1099-9.5149-18.942-15.594-24.404-15.242-5.4623 0.35241-13.039 3.3478-13.92 4.2289-0.88101 0.88101-7.0481 1.9382-7.4005-0.88102-0.3524-2.8192 40.174-17.444 40.174-17.444l33.831 52.684-79.407 10.706z" fill="#fff" fill-rule="evenodd" stroke-width="1px"/>
<path d="m177.24 293.91c-1.3662-3.445-1.6812-13.432-0.74756-15.45 0.95683-2.0677 0.67693-3.203-2.6165-0.12459-3.422 3.1986-2.8504 16.517 0.37377 16.945l2.9903-1.3705z" fill="#fff" fill-rule="evenodd" stroke-width="1px"/>
<path d="m233.18 344.62c-14.328-12.459-34.568-9.4449-48.218-7.1018-13.63 2.3396-19.935 1.2459-25.293-1.8689-3.8112-2.2158-8.8462-2.2427-3.987 2.6165s6.8814 10.446 26.663 7.8494c19.935-2.6165 41.241-2.1181 50.834-1.4951z" fill="#fff" fill-rule="evenodd" stroke-width="1px"/>
<path d="m196.18 362.19c-8.9708-11.961-11.836-19.437-9.7183-31.522 5.76 17.452 13.139 22.037 24.171 28.532l-14.453 2.9902z" fill="#fff" fill-rule="evenodd" stroke-width="1px"/>
<path d="m286.03 408.79c23.523-16.123 41.793-62.489 45.944-75.742 4.1394-13.218 6.9876-30.443 12.665-38.229-4.409-1.266-9.4949 2.0354-14.482 3.932 3.0535-4.7799 10.682-13.333 15.913-18.677-6.1377-1.0866-13.992 2.1438-18.368 7.0481 3.7884-6.0496 11.277-14.302 16.299-19.03-6.5782 0.36052-15.535 4.3332-22.025 8.5702 5.4623-8.319 12.334-15.405 20.439-20.728-8.0466 0.05874-13.803 2.8486-19.999 7.0481 4.6106-6.6663 9.3094-13.245 15.153-18.237-7.5767 1.204-13.479 4.3463-19.03 8.722 3.524-6.8719 8.1053-13.215 12.334-18.854-7.4592 3.4653-13.949 8.3402-21.232 12.687 4.8162-7.0481 8.4871-14.096 13.479-20.792-8.722 4.0233-16.475 8.9276-24.933 13.391 0.1762-8.164-0.70481-16.592-0.5286-24.756-4.4638 7.1656-8.2228 16.446-10.484 26.166-0.41114-7.6942-0.20557-17.679-0.61671-25.373-4.3757 5.8147-8.3109 12.598-10.308 22.554-1.4096-8.1053-1.2334-16.739-1.2334-25.549-4.963 7.4005-6.9306 17.62-8.6339 26.518-1.1453-7.9585-1.3215-17.679-2.0263-25.726-2.878 7.5767-5.4035 15.682-6.96 25.109-0.1762-7.3418-0.37443-18.751-2.3787-23.171-0.54307 4.6266-3.5539 16.204-4.4051 21.585-0.86479 5.4672-33.478 41.848-39.646 43.786-6.9653 2.1891-12.989 2.7338-19.735 6.3433-6.7823 3.6293-19.911 7.9291-28.897 7.4886-8.8982-0.4405-10.293-1.3286-10.308 3.524-0.01459 4.7646 1.0709 3.6478 3.3478 4.4932 2.2468 0.83414 4.0526 2.2906 1.2334 4.405-2.8192 2.1144-5.5946 2.8648-0.88101 7.4005 4.6694 4.4932 5.6152 8.1118 13.832 5.8147 8.1934-2.2906 20.878-9.9555 32.421-9.7792 11.541 0.17621 21.619 9.7624 25.902 18.589 4.317 8.8982 3.6122 17.18-4.1408 20.175s-30.571 8.5458-37.884 10.132c-7.2946 1.582-13.303 1.0572-13.303 1.0572s0.44165 7.4072 12.07 7.1362c11.63-0.2711 24.626-0.42865 26.695 0.96911 2.0687 1.3978 4.8749 3.5534 7.0481 5.0218-0.11747-1.8208 0.11748-3.5534 1e-5 -5.3742 4.8456 2.3494 9.2506 4.7868 13.039 7.6648 0.32304-2.9073-0.93974-6.079-3.2597-8.8101 5.1099 2.5549 10.044 5.5504 14.625 9.5149 0.52861-3.3772-0.61671-7.5473-2.9954-10.925 9.2212 3.9352 13.773 16.945 14.184 23.347 2.8192-1.9676 4.1408-4.0233 5.0218-8.722 1.0278 8.7808 0.64608 18.883 0 26.166 2.9367-3.0248 4.5519-6.4901 6.3433-11.541-0.32304 7.6942-1.7033 15.124-2.4668 22.466 5.0805-5.6385 9.4562-11.806 11.453-19.999-0.29367 5.2861-0.41114 11.189-1.4096 16.387 5.4623-3.5828 8.9863-6.9894 11.629-18.677 1.1159 2.1438 1.2628 9.3094 1.4977 13.479z" fill="#fff" fill-rule="evenodd" stroke-width="1px"/>
<path d="m189.33 318.2c8.5574 6.799 18.752 10.189 24.911-3.7549-2.3069-1.3756-4.781-2.4337-7.375-3.0625-1.1425 5.551-7.9747 5.3716-13.885 0.5153-6.1424-5.112-6.5205-13.503-6.2714-19.484 0.24919-5.9805-4.4314-2.7046-5.6067 2.9903-1.17 5.6689-2.3475 14.393 8.2277 22.796z" fill="#fff" fill-rule="evenodd" stroke-width="1px"/>
<path d="m263.46 273.48c9.7183-8.9708 16.637-33.35 37.004-47.719 20.309-14.328 16.197-6.8527 14.951-3.6132s-3.9724 11.212-2.7411 21.555c1.2459 10.466 1.8689 15.823-10.59 25.791-12.459 9.9675-17.194 11.213-17.194 11.213 6.7588 4.3344 17.131 14.649 19.529 17.987-1.0275-0.01515-2.678 0.0943-3.581 0.07915 3.1979 4.2777 5.8974 10.923 7.4756 16.322-1.7443-0.58144-3.4886-1.1629-5.233-1.7443 3.5717 6.5619 5.1499 12.376 5.4821 17.443-1.5782-1.4951-3.1564-2.9902-4.7346-4.4854 1.2044 6.645 0.91369 13.415 0.62297 19.312-1.2459-1.4121-2.4919-3.3225-3.364-5.1084-0.20765 6.1882-1.1629 11.38-2.4919 15.948-0.91369-1.4951-1.8274-2.9902-2.7411-4.4854-0.83063 5.6483-3.1564 9.926-5.233 14.577-0.16612-1.4121-0.58143-3.4471-0.74755-4.7346-2.5334 5.1914-6.562 8.5139-10.341 11.463-0.04153-1.2459 0.29073-4.4854 0.37379-6.1051-2.8657 3.6548-6.4789 6.3128-10.466 7.974" fill="#fff" fill-rule="evenodd" stroke-width="1px"/>
<path d="m276.42 275.32c16.915-17.973 13.06-28.425 23.083-41.76 9.9378-13.222 13.391-15.682 13.391-15.682" fill="#fff" fill-rule="evenodd" stroke-width="1px"/>
<path d="m238.89 284.31c9.8673-6.3433 14.449 1.4096 16.034 4.0526" fill="none" stroke-width="1px"/>
<path transform="matrix(.82222 0 0 .71111 23.526 26.532)" d="m273.29 365.97a3.9646 3.9646 0 1 1-7.9291 0 3.9646 3.9646 0 1 1 7.9291 0z" fill="none" stroke-linecap="round" stroke-width="1.0172"/>
<path d="m157.54 312.17c3.8624 1.9935 5.1235-1.5707 5.3726-5.6823s-2.1181-9.7183-4.2362-10.715-4.3498-1.9944-5.4154-1.2699c-1.1266 0.766-1.1074 2.4907-1.0649 4.1616 0.04254 1.671-0.47094 3.2551 0.95538 3.5507 1.3417 0.27812 5.2757 3.4156 5.5249 0.48952-0.10432 2.2621-2.0514 3.7316 0.5651 3.8562 1.5642 0.07448 1.1933 4.4885 0.40815 6.0138-1.233 0.32132-1.0908 0.0427-2.1097-0.40448z" fill="#fff" fill-rule="evenodd" stroke-width="1px"/>
</g>
</svg>
